Obsidian/places/16s/drive-removable-media-usb-symbolic.svg

<svg viewBox="0 0 16 16" xmlns="http://www.w3.org/2000/svg"><path d="m4 1 .03125 2.03125h-.09375c-.50273 0-.9058673.403521-.90625.90625v8.0625s-.03125 4 4.96875 4 5.03125-4 5.03125-4l-.03125-8.0625c-.000398-.5027288-.403519-.9062495-.90625-.90625h-.09375v-2.03125s0-1-1-1h-6c-1 0-1 1-1 1zm2.03125 1h1v1.03125h-1zm3 0h1v1.03125h-1zm-3.125 3.03125h4.21875c.502731 0 .908547.4035262.90625.90625l-.03125 5.0625c-.01371 3-3 2.966102-3 2.966102s-3.0062886.033898-3-2.966102v-5.0625c.00105-.502728.40352-.90625.90625-.90625z" fill="#bebebe"/></svg>

<?xml version="1.0" encoding="UTF-8" standalone="no"?>
<svg
   xmlns:dc="http://purl.org/dc/elements/1.1/"
   xmlns:cc="http://creativecommons.org/ns#"
   xmlns:rdf="http://www.w3.org/1999/02/22-rdf-syntax-ns#"
   xmlns:svg="http://www.w3.org/2000/svg"
   xmlns="http://www.w3.org/2000/svg"
   xmlns:sodipodi="http://sodipodi.sourceforge.net/DTD/sodipodi-0.dtd"
   xmlns:inkscape="http://www.inkscape.org/namespaces/inkscape"
   viewBox="0 0 16 16"
   id="svg2"
   version="1.1"
   inkscape:version="0.48.4 r9939"
   width="100%"
   height="100%"
   sodipodi:docname="drive-removable-media-usb-symbolic.svg">
  <metadata
     id="metadata10">
    <rdf:RDF>
      <cc:Work
         rdf:about="">
        <dc:format>image/svg+xml</dc:format>
        <dc:type
           rdf:resource="http://purl.org/dc/dcmitype/StillImage" />
      </cc:Work>
    </rdf:RDF>
  </metadata>
  <defs
     id="defs8" />
  <sodipodi:namedview
     pagecolor="#ffffff"
     bordercolor="#666666"
     borderopacity="1"
     objecttolerance="10"
     gridtolerance="10"
     guidetolerance="10"
     inkscape:pageopacity="0"
     inkscape:pageshadow="2"
     inkscape:window-width="1366"
     inkscape:window-height="704"
     id="namedview6"
     showgrid="true"
     inkscape:zoom="29.5"
     inkscape:cx="1.6271186"
     inkscape:cy="8"
     inkscape:window-x="0"
     inkscape:window-y="27"
     inkscape:window-maximized="1"
     inkscape:current-layer="svg2">
    <inkscape:grid
       type="xygrid"
       id="grid2987" />
  </sodipodi:namedview>
  <path
     style="fill:#bebebe"
     d="m 4,1 0.03125,2.03125 -0.09375,0 c -0.50273,0 -0.9058673,0.403521 -0.90625,0.90625 l 0,8.0625 C 3.03125,12 3,16 8,16 c 5,0 5.03125,-4 5.03125,-4 L 13,3.9375 C 12.999602,3.4347712 12.596481,3.0312505 12.09375,3.03125 L 12,3.03125 12,1 C 12,1 12,0 11,0 L 5,0 C 4,0 4,1 4,1 z m 2.03125,1 1,0 0,1.03125 -1,0 z m 3,0 1,0 0,1.03125 -1,0 z m -3.125,3.03125 4.21875,0 c 0.502731,0 0.908547,0.4035262 0.90625,0.90625 L 11,11 C 10.98629,14 8,13.966102 8,13.966102 8,13.966102 4.9937114,14 5,11 L 5,5.9375 C 5.00105,5.434772 5.40352,5.03125 5.90625,5.03125 z"
     id="path4"
     inkscape:connector-curvature="0"
     sodipodi:nodetypes="ccsccsccscccccccccccccccsscccccs" />
</svg>
